X:1
T:Bus Rider.mid
M:4/4
L:1/8
K:C
zzzzzzzzzzC2zzzz | zC2zzzzzC2zzz | zzC2zzzzzzzzC2zzzzzzE2zE2zzzG2zzzzE2zzzC2zzzC2zzzzG5zzzE2zzC2 | G5E2F5zzzG2zE5zC2F5zF^5zzzzG5 | E2zzzzzzG5C2z | zzC5zzzzE2zE2 | zzzG2zzzzE2zz | zC2zzzzzzzzE2 | E2zzzG2zzzzE2 | zzzzG2C2zzzzz | zzE2E2zzzG2zz | zzzE2zzzC2zzz | zzzzE2E2zzzG2 | zzzzzE2zzD3C2 | zzzzzzE2E2zzz | G2zzzzzE2zzC2 | zzzzzzzE2E2zz | zG2zzzzzzE2zz | zC2zzzzzzE2E2 | zzzG2zzzzzE2z | zzG2C2C2zzzzG2C2A2zzzzzzE2B2E2B1zzzG2zzzzzzE2 | zzzC2zzzC2A2z | zzzzE2E2zzzG2 | zzzzzE2zzG2C2 | C2zzzzA2C2zzz | zzE2E2zzzG2zA2zzzzzC2G2F^2zzz | zzG2zzzzzzzF^2G2zzzzzD6zF^2D6 | zzG2zzzzzF^2z | zG2zG2D6F^2zF^2F2F2zzzzzzzzzz | zzzzzzzzzC2zz | zzzzE2zE2zzzG2zzzzE2zzzzG2C2z | zzzzzzzE2zE2z | zzG2zzzzE2zzz | C3zE3zG3zB2B2 | A2C3zzzF3zzE3 | C3zzzzC3C3zzz | zzzzzzzzzzzzz | zzzzzzzzzC4C2 | C2zzC4zC2zzzz | zzzzzE2zE2zzz | zG2zzzzzzzE2z | zzzC2C2zzzzzz | zzzzE2C2E2zzz | G2C2zzzzE2zzz | C2zzzzE5zzzzE2E2zzzzC2B4G2zzC2zzzE2zzzzC2C2zz | zzC2zzzzE2zC2 | E2zzzG2zC2zzz | zE2zzzzzzzzzz | zE2E2zzzG2zzz | zzE2zzzC2zzzz | zzzE2E2zzzG2z | zzzzE2zzzzzzz | zzE2E2zzzG2zz | zzzE2zzC2zzzz | zzzE2E2zzzG2z | zzzzzE2zzzzzz | zzzzE2E2zzzG2 | zzzzzE2zzzzG2 | C2C2zzzzG2C2A2zzzzzzE2zB2E2B1 | zzzG2zzzzzzE2 | zzzzzzzC2A2zz | zzzE2E2zzzG2z | zzzzE2zzzG2C2 | C2zzzzC2A2zzz | zzzE2E2zzzG2z | A2zzzzzC2G2F^2zzzzzzG2zzzzzzz | F^2zzG2zzzzzz | F^2zzzzG2zzzz | zzzF^2zG2zzG2 | zF^2zzF^2zzF2 | zzzzzzzzzzzzz | zzzzzC2zzzzzz | zE2zE2zzzG2zz | zzE2zzzG2C2zz | zzzzzzE2zE2zz | zG2zzzzE2zzzC3zE3zG3zB2B2A2C3 | zzF3zzE3C3zzC3C3zzzzzzzzzzzzz | zzzzC4C2C2zD1 | zzzzzzzzzzD1z | D1zzzzD1zzzzz | zzzD1zzzzzzzz | zzD1zD1zzzzD1 | zzzzzzzzF1zzz | zzzzzzF1zF1zz | zzF1zzzzzzzzz | zF1zzzzzzzzzz | zF1zF1zzzzF1z | zzzzzzzG1zzzz | zzzzzG1zG1zzz | zG1zzzzzzzzG1 | zzzzzzzzzzzG1 | zG1zzzzG1zzzz | zzzzzF1zzzzzz | zzzzzzzzzD2zD2zD2zzD2zD2zD2zC2zzzzzzzE2zE2zzz | G2zzzzE2zzzG2 | C2zzzzzzzzE2z | E2zzzG2zzzzE2 | zzC3zE3zG3zB2 | B2A2C3zzzF3zz | E3C3zzzzC3C3z | zzzzzzzzzzzzz | zzzzzzzzzzC4C2zC2zzzC4zC2zzzz | zzzE2E2zzzzG2 | zzzzzE2zzzzC2 | zzzzzzzzzE2zE2zzzzC5G2B4G4zF4 | zzzE4E2D4zzzE4zzzzC5zC4zzzB4E2B3E2zzzE4A4G2zz | zA3zzzG4E2zzz | G2zC2E4zzzF4z | zzzD4zzzzE2zE2zzzzG2zzzG^3zzz | zE2zzzzzzzzzz | E2E2zzzG2zzzz | zE2zzzzC2zzzz | zzzE2E2zzzG2z | zzzzE2zzzzzzz | zE2E2zzzG2zzz | zzE2zzzC2zzzz | zzzE2E2zzzG2z | zzzzzE2zzzzzz | zzzzE2E2zzzG2 | zzzzzE2zzzG2C2C2zzzzG2C2A2zzz | zzzE2B2E2B1zz | zG2zzzzzzE2zz | zzzzC2A2zzzzz | E2E2zzzG2zzzz | zE2zzG2C2C2zz | zzC2A2zzzzzzE2E2zzzG2zA2zzzzz | C2G2F^2zzzzzG2zzzzzzzF^2zG2zz | zzzzzF^2zzzG2 | zzzzzzzF^2zG2 | zzG2zF^2zzF^2 | zzzF2zzzzzzzz | zzzzzzzzzzzzz | zC2zzzzzzE2zE2zzzG2zzzzE2zzzG2C2zzzzzzzzE2zE2 | zzzG2zzzzE2zz | C3zE3zG3zB2B2 | A2C3zzF3zzE3C3zzC3C3zzzzzzzzz | zzzzzzzzzzzzz | C4C2C2zzC4zC2 | zzzzzzzE2zE2z | zzG2zzzzzE2zz | zzC2zzzzA2zzz | zE2zE2zzzG2zz | zzzE2zzzzzC2z | zzzzzzzzzE2zz | E2zzzzG2zzzzz | zzE2zzzzzC2C2 | zzzzzzzzzzzE2 | zzC2E2zzzzG2z | C2zzzzzE2zzzC2zzzzzzzE2zE2zzz | G2zzzzzE2zzzz | C2zzzzzzzzE2z | E2zzzG2zzzzzE2zzzzzzzzzzzE2zE2zzzG2zzzzzE2zzz | zC2zzzzzzzzE2 | zE2zzzG2zzzzz | E2zzzzzzzzzzE2zE2zzzG2zzzzzE2 | zzzC2zzzzzzzz | E2zE2zzzG2zzz | zzzE2zzzzzzzz | zzzE2zE2zzzG2 | zzzzzE2zzzzG2 | C2C2zzzzG2zC2 | A2zzzzzzE2zB2 | E2B1zzzG2zzzz | zzE2zzzzzzzzC2A2zzzzzE2zE2zzz | G2zzzzzE2zzzG2C2C2zzzzzC2A2zz | zzzzE2zE2zzzG2zzzzzzC2G2B1zzz | zC3zzE3zG3B2B2A2C3zzF3zzE3C3z | zC3C3zzzzzzzz | zzzzzzzzzzzzz | zC4C2C2zC4G2z | C3zzE3zG3zB2z | zB2zA2zC3zzzF3zE3zC3zzzC3zC3z | zzzzzzzzzzzzz | zzzzzzzC4C2C2 | zC4C2C2zC2zzC2zzzzz
